lib/svgs/state-check.svg

<?xml version="1.0" encoding="UTF-8" standalone="no"?>
<svg width="20px" height="20px" viewBox="0 0 20 20" version="1.1" xmlns="http://www.w3.org/2000/svg" xmlns:xlink="http://www.w3.org/1999/xlink">
    <defs></defs>
    <g id="Icons" stroke="none" stroke-width="1" fill="none" fill-rule="evenodd">
        <g id="Web" transform="translate(-97.000000, -1134.000000)" fill="#000000">
            <g id="community/state-check" transform="translate(97.000000, 1134.000000)">
                <path d="M10,18 C5.58918919,18 2,14.4099723 2,9.9994595 C2,5.58894669 5.58918919,2 10,2 C14.4118919,2 18,5.58894669 18,9.9994595 C18,14.4099723 14.4118919,18 10,18 M9.1865,11.551 L7.0245,9.389 C6.9075,9.272 6.7535,9.214 6.6005,9.214 C6.4465,9.214 6.2925,9.272 6.1755,9.389 C5.9415,9.624 5.9415,10.004 6.1755,10.238 L8.7625,12.824 C8.8795,12.941 9.0335,13 9.1865,13 C9.3395,13 9.4935,12.941 9.6105,12.824 L14.4105,8.024 C14.6445,7.79 14.6445,7.41 14.4105,7.176 C14.2935,7.058 14.1395,7 13.9865,7 C13.8325,7 13.6795,7.058 13.5615,7.176" id="Shape"></path>
            </g>
        </g>
    </g>
</svg>

<svg xmlns="http://www.w3.org/2000/svg" viewBox="0 0 20 20">
    <path fill="#000" fill-rule="evenodd" d="M10 18c-4.41 0-8-3.59-8-8 0-4.411 3.59-8 8-8 4.412 0 8 3.589 8 8 0 4.41-3.588 8-8 8m-.813-6.449L7.025 9.389a.598.598 0 0 0-.85 0 .601.601 0 0 0 0 .849l2.587 2.586a.6.6 0 0 0 .848 0l4.8-4.8a.6.6 0 1 0-.848-.848"/>
</svg>
